usr/share/icons/biglinux-icons-material/scalable/mimetypes/application-x-object.svg

<svg width="24" height="24" viewBox="0 0 24 24" fill="none" xmlns="http://www.w3.org/2000/svg">
<rect x="1" y="1" width="22" height="22" rx="6.6" fill="url(#paint0_radial_3_1004)"/>
<path d="M5.00259 15.7447C5.00259 15.4841 5.03649 15.2658 5.10641 15.0899C5.17178 14.9256 5.27456 14.7787 5.40661 14.661C5.53865 14.5433 5.69632 14.458 5.86709 14.4119C6.22452 14.3107 6.60302 14.3107 6.96044 14.4119C7.13129 14.4579 7.28903 14.5431 7.4211 14.6608C7.55317 14.7785 7.65591 14.9255 7.72113 15.0899C7.80209 15.2984 7.84028 15.5211 7.83343 15.7447C7.8386 15.9628 7.79968 16.1797 7.71901 16.3825C7.65472 16.5486 7.55244 16.6974 7.42036 16.817C7.28827 16.9366 7.13005 17.0236 6.95833 17.0711C6.60249 17.1832 6.22081 17.1832 5.86498 17.0711C5.69372 17.0232 5.53599 16.936 5.40431 16.8164C5.27264 16.6969 5.17064 16.5483 5.10641 16.3825C5.03136 16.1784 4.99754 15.962 5.00259 15.7447Z" fill="white"/>
<path d="M12.7789 12.0642C12.7789 13.0389 12.9167 13.7741 13.1921 14.272C13.4676 14.7615 13.9125 15.0073 14.5313 15.0073C15.1457 15.0073 15.5907 14.7594 15.864 14.2636C16.1395 13.7656 16.2751 13.0346 16.2751 12.0642C16.2751 11.0895 16.1374 10.3606 15.864 9.8817C15.5886 9.39859 15.1394 9.15492 14.5143 9.15492C13.8998 9.15492 13.457 9.39859 13.1836 9.8817C12.9145 10.3606 12.781 11.0895 12.781 12.0642M19 12.0642C19 12.8821 18.8941 13.6046 18.6822 14.236C18.5025 14.8252 18.1991 15.3692 17.7922 15.8316C17.4011 16.2658 16.9154 16.6044 16.3726 16.8211C15.7745 17.0508 15.1379 17.1637 14.4973 17.1537C13.849 17.1537 13.2536 17.0414 12.709 16.8211C12.1729 16.5978 11.692 16.2601 11.2999 15.8316C10.8897 15.3666 10.577 14.8241 10.3803 14.236C10.1476 13.5361 10.0351 12.8017 10.0477 12.0642C10.0477 11.2526 10.1494 10.5301 10.3528 9.90077C10.5647 9.26934 10.8613 8.74173 11.247 8.31371C11.639 7.88253 12.1247 7.54693 12.6666 7.33267C13.2218 7.1123 13.849 7 14.5503 7C15.1966 7 15.7941 7.1123 16.3365 7.33267C16.879 7.55515 17.3473 7.88358 17.7371 8.31371C18.1355 8.74173 18.4449 9.26934 18.6673 9.90077C18.8877 10.5301 19 11.2526 19 12.062" fill="white"/>
<defs>
<radialGradient id="paint0_radial_3_1004" cx="0" cy="0" r="1" gradientUnits="userSpaceOnUse" gradientTransform="translate(17.5 1) rotate(116.565) scale(24.5967)">
<stop stop-color="#F89799"/>
<stop offset="1" stop-color="#DC5758"/>
</radialGradient>
</defs>
</svg>

<svg xmlns="http://www.w3.org/2000/svg" width="24" height="24" fill="none"><rect width="22" height="22" x="1" y="1" fill="url(#a)" rx="6.6"/><path fill="#fff" d="M5.003 15.745c0-.26.033-.48.103-.655a1.138 1.138 0 0 1 .761-.678 2.007 2.007 0 0 1 1.093 0 1.136 1.136 0 0 1 .761.678c.081.208.12.431.112.655.006.218-.033.435-.114.638a1.143 1.143 0 0 1-.76.688 1.82 1.82 0 0 1-1.094 0 1.143 1.143 0 0 1-.759-.689 1.73 1.73 0 0 1-.103-.637ZM12.779 12.064c0 .975.138 1.71.413 2.208.276.49.72.735 1.34.735.614 0 1.059-.248 1.332-.743.276-.498.411-1.23.411-2.2 0-.975-.138-1.703-.411-2.182-.275-.483-.725-.727-1.35-.727-.614 0-1.057.244-1.33.727-.27.479-.403 1.207-.403 2.182m6.219 0c0 .818-.106 1.54-.318 2.172a4.325 4.325 0 0 1-.89 1.596 3.814 3.814 0 0 1-1.42.99 5.013 5.013 0 0 1-1.875.332 4.723 4.723 0 0 1-1.788-.333 3.99 3.99 0 0 1-1.41-.99 4.634 4.634 0 0 1-.919-1.595 6.53 6.53 0 0 1-.332-2.172c0-.811.101-1.534.305-2.163.212-.632.508-1.16.894-1.587a3.814 3.814 0 0 1 1.42-.981C13.222 7.113 13.849 7 14.55 7a4.71 4.71 0 0 1 1.787.333 3.83 3.83 0 0 1 1.4.98c.399.429.708.956.93 1.588.22.63.333 1.352.333 2.161"/><defs><radialGradient id="a" cx="0" cy="0" r="1" gradientTransform="rotate(116.565 8.441 5.908) scale(24.5967)" gradientUnits="userSpaceOnUse"><stop stop-color="#F89799"/><stop offset="1" stop-color="#DC5758"/></radialGradient></defs></svg>
